X:1
T:Jesus Is Calling You Now
T:Jesus Is Calling You Now
T:John Marchant Whyte
T:John Marchant Whyte, 1886
T:Public Domain Courtesy of the Cyber Hymnal™
T:Public Domain Courtesy of the Cyber Hymnal™
C:John Marchant Whyte
Z:Public Domain
Z:Courtesy of the Cyber Hymnal™
%%score ( 1 2 ) ( 3 4 )
L:1/8
Q:1/4=87
M:6/8
K:Ab
V:1 treble 
V:2 treble 
V:3 bass 
V:4 bass 
V:1
 z3 AAA | c>AA B>AA | A3 [GB]>[GB][GB] | [GB][Gc][Gd] [GB]3 | z3 AAA | c>AA B>AA | %6
w: 1.~Why do you|wait a con- ven- i- ent|day? Je- sus is|call- ing you now;|Why do you|turn from His plead- ing a-|
w: 2.~Days have gone|by, and the months and the|years, Je- sus is|call- ing you now;|Joys have de-|part- ed, and sor- row ap-|
w: 3.~Dark- ness is|deep- ening, and oh, ’tis so|late! Je- sus is|call- ing you now;|What if the|Spir- it left you to your|
 A3 [GB]>[GB][GB] | [GB][Ed][Ec] [EA] !fermata!z e | ecc cBB | c2 A B2 E | A (B/c/) (d/B/) cAA | %11
w: way? Je- sus is|call- ing you now. He|stands at the door of your|heart just now, The|dews of * the * morn- ing are|
w: pears, Je- sus is|call- ing you now. The|prom- ise you made Him was|ne- ver kept, When|down by * the * grave- side you|
w: fate? Je- sus is|call- ing you now. Es-|cape for thy life, tar- ry|not, O soul, Es-|cape for * thy * life, you may|
 (Bd)G A3 | A>AA BBB | ccc d2 [Ad] | [Ac][Ae][EA] [EB][Ed][EG] | [EA]2 z || %16
w: on * His brow.|He is there wait- ing and|call- ing you now; O|will you not come to Him|now?|
w: mourned * and wept;|Turn to Him now, and His|free grace ac- cept; O|will you not come to Him|now?|
w: miss * the goal.|And if you miss it, what|hor- rors, O soul! O|will you not come to Him|now?|
"^Refrain" [ce]>[df][ce] | [ce][Ac][ce] [Bd]3 | z3 [Bd]>[ce][Bd] | [Bd][Ac][GB] [Ac]3 | %20
w: ||||
w: Will you not|come to Him now?|Will you not|trust in Him now?|
w: ||||
 z3 [Ac]2 z | A2 z [Gd]2 z | [GB]2 E [EA][Ec][EA] | [EB][Ed][EG] [EA]3 |] %24
w: ||||
w: Just|now, right|now, O hear Him, He’s|call- ing you now.|
w: ||||
V:2
 x6 | x6 | x6 | x6 | x6 | x6 | x6 | x6 | x6 | x6 | x6 | x6 | x6 | x6 | x6 | x3 || x3 | x6 | x6 | %19
 x6 | x6 | A2 x4 | x2 E x3 | x6 |] %24
V:3
 z3 [A,,C][A,,C][A,,C] | E>[A,,C][A,,C] [A,,D]>[A,,C][A,,C] | [A,,C]3 [E,E]>[E,E][E,E] | %3
w: ~ ~ ~|~ ~ ~ ~ ~ ~|~ ~ ~ ~|
 [E,E][E,E][E,E] [E,E]3 | z3 [A,,C][A,,C][A,,C] | [A,,E]>[A,,C][A,,C] [A,,D]>[A,,C][A,,C] | %6
w: ~ ~ ~ ~|~ ~ ~|~ ~ ~ ~ ~ ~|
 [A,,C]3 [E,D]>[E,D][E,D] | [E,D][E,F][E,E] [A,,D] !fermata!z C | CA,A, B,G,G, | A,2 C E2 C | %10
w: ~ ~ ~ ~|~ ~ ~ ~ ~|~ ~ ~ ~ ~ ~|~ ~ ~ ~|
 EEE ECC | D2 D [A,,C]3 | C>CC DDD | EEE !fermata![D,,F]2 [D,F] | %14
w: ~ ~ ~ ~ ~ ~|~ ~ ~|~ ~ ~ ~ ~ ~|~ ~ ~ ~ ~|
 [E,E][E,C][E,C] [E,D][E,D][E,B,] | [A,,C]2 z || [A,E]>[A,E][A,E] | [A,C]2 z [E,D] z [E,D] | %18
w: ~ ~ ~ ~ ~ ~|~|Come to Him|now, come, just|
 [E,B,]3 [E,B,]>[E,B,][E,B,] | [E,B,][E,C][E,D] [A,E]2 [A,E] | [A,E]2 z [A,E][A,E][A,E] | %21
w: now. ~ ~ ~|~ ~ ~ ~ right|now? Come to Him|
 [A,C]2 z [E,E][E,E][E,E] | [E,D]2 [A,E] [A,C][A,E][A,C] | [E,D][E,D][E,B,] [A,,C]3 |] %24
w: now, trust in Him|now. * * * *||
V:4
 x6 | x6 | x6 | x6 | x6 | x6 | x6 | x6 | A,,3 A,,3 | E,,3 E,,3 | E,,3 E,,3 | E,,3 x3 | A,,3 E,,3 | %13
 A,,3 x3 | x6 | x3 || x3 | x6 | x6 | x6 | x6 | x6 | x6 | x6 |] %24

